; generated by PrusaSlicer 2.0.0+win64 on 2019-07-22 at 19:29:25

; 

; external perimeters extrusion width = 0.45mm
; perimeters extrusion width = 0.45mm
; infill extrusion width = 0.45mm
; solid infill extrusion width = 0.45mm
; top infill extrusion width = 0.40mm
; first layer extrusion width = 0.42mm

M73 P0 R11
M73 Q0 S11
M201 X1000 Y1000 Z1000 E5000 ; sets maximum accelerations, mm/sec^2
M203 X200 Y200 Z12 E120 ; sets maximum feedrates, mm/sec
M204 P1250 R1250 T1250 ; sets acceleration (P, T) and retract acceleration (R), mm/sec^2
M205 X8.00 Y8.00 Z0.40 E1.50 ; sets the jerk limits, mm/sec
M205 S0 T0 ; sets the minimum extruding and travel feed rate, mm/sec
M107
M115 U3.7.1 ; tell printer latest fw version
G90 ; use absolute coordinates
M83 ; extruder relative mode
M104 S215 ; set extruder temp
M140 S60 ; set bed temp
M190 S60 ; wait for bed temp
M109 S215 ; wait for extruder temp
G28 W ; home all without mesh bed level
G80 ; mesh bed leveling
G1 Y-3.0 F1000.0 ; go outside print area
G92 E0.0
G1 X60.0 E9.0 F1000.0 ; intro line
M73 Q0 S11
M73 P0 R11
G1 X100.0 E12.5 F1000.0 ; intro line
G92 E0.0
M221 S95
M900 K30 ; Filament gcode
G21 ; set units to millimeters
G90 ; use absolute coordinates
M83 ; use relative distances for extrusion
;BEFORE_LAYER_CHANGE
G92 E0.0
;0.2


G1 E-0.80000 F2100.00000
G1 Z0.600 F10800.000
;AFTER_LAYER_CHANGE
;0.2
G1 X11.780 Y15.433
G1 Z0.200
G1 E0.80000 F2100.00000
M204 S1000
G1 F1200
G1 X12.494 Y15.311 E0.02270
G1 X237.504 Y15.311 E7.05502
G1 X238.334 Y15.476 E0.02653
G1 X239.042 Y15.947 E0.02664
G1 X239.517 Y16.651 E0.02664
G1 X239.688 Y17.483 E0.02664
G1 X239.689 Y192.511 E5.48787
G1 X239.632 Y192.996 E0.01532
G1 X239.467 Y193.460 E0.01544
G1 X239.202 Y193.876 E0.01544
G1 X238.854 Y194.219 E0.01532
G1 X238.220 Y194.567 E0.02270
G1 X237.506 Y194.689 E0.02270
G1 X12.496 Y194.689 E7.05502
G1 X12.007 Y194.632 E0.01544
G1 X11.543 Y194.468 E0.01544
G1 X11.127 Y194.204 E0.01544
G1 X10.781 Y193.854 E0.01544
G1 X10.433 Y193.220 E0.02270
G1 X10.311 Y192.506 E0.02270
G1 X10.311 Y17.496 E5.48730
G1 X10.368 Y17.007 E0.01544
G1 X10.532 Y16.543 E0.01544
G1 X10.796 Y16.127 E0.01544
G1 X11.146 Y15.781 E0.01544
G1 X11.728 Y15.462 E0.02082
G1 F8640
G1 X12.494 Y15.311 E-0.18032
G1 X15.005 Y15.311 E-0.57968
G1 E-0.04000 F2100.00000
G1 Z0.800 F10800.000
G1 X113.087 Y93.087
G1 Z0.200
G1 E0.80000 F2100.00000
G1 F1200
G1 X113.413 Y93.087 E0.01022
G1 X113.413 Y95.587 E0.07839
G1 X136.913 Y95.587 E0.73683
G1 X136.913 Y98.913 E0.10428
G1 X113.413 Y98.913 E0.73683
G1 X113.413 Y101.587 E0.08385
G1 X136.913 Y101.587 E0.73683
G1 X136.913 Y104.913 E0.10428
G1 X113.413 Y104.913 E0.73683
G1 X113.413 Y107.587 E0.08385
G1 X136.913 Y107.587 E0.73683
G1 X136.913 Y110.913 E0.10428
G1 X113.413 Y110.913 E0.73683
G1 X113.413 Y113.587 E0.08385
G1 X136.913 Y113.587 E0.73683
G1 X136.913 Y116.913 E0.10428
G1 X113.087 Y116.913 E0.74704
G1 X113.087 Y116.587 E0.01022
G1 X136.587 Y116.587 E0.73683
G1 X136.587 Y113.913 E0.08385
G1 X113.087 Y113.913 E0.73683
G1 X113.087 Y110.587 E0.10428
G1 X136.587 Y110.587 E0.73683
M73 Q9 S10
G1 X136.587 Y107.913 E0.08385
G1 X113.087 Y107.913 E0.73683
M73 P9 R10
G1 X113.087 Y104.587 E0.10428
G1 X136.587 Y104.587 E0.73683
G1 X136.587 Y101.913 E0.08385
G1 X113.087 Y101.913 E0.73683
G1 X113.087 Y98.587 E0.10428
G1 X136.587 Y98.587 E0.73683
G1 X136.587 Y95.913 E0.08385
G1 X113.087 Y95.913 E0.73683
G1 X113.087 Y93.147 E0.08672
G1 X113.790 Y93.290 F10800.000
G1 F1200
G1 X113.790 Y95.210 E0.06020
G1 X137.290 Y95.210 E0.73683
G1 X137.290 Y99.290 E0.12793
G1 X113.790 Y99.290 E0.73683
G1 X113.790 Y101.210 E0.06020
G1 X137.290 Y101.210 E0.73683
G1 X137.290 Y105.290 E0.12793
G1 X113.790 Y105.290 E0.73683
G1 X113.790 Y107.210 E0.06020
G1 X137.290 Y107.210 E0.73683
G1 X137.290 Y111.290 E0.12793
G1 X113.790 Y111.290 E0.73683
G1 X113.790 Y113.210 E0.06020
G1 X137.290 Y113.210 E0.73683
G1 X137.290 Y117.290 E0.12793
G1 X112.710 Y117.290 E0.77069
G1 X112.710 Y116.210 E0.03386
G1 X136.210 Y116.210 E0.73683
G1 X136.210 Y114.290 E0.06020
G1 X112.710 Y114.290 E0.73683
G1 X112.710 Y110.210 E0.12793
G1 X136.210 Y110.210 E0.73683
G1 X136.210 Y108.290 E0.06020
G1 X112.710 Y108.290 E0.73683
G1 X112.710 Y104.210 E0.12793
G1 X136.210 Y104.210 E0.73683
G1 X136.210 Y102.290 E0.06020
G1 X112.710 Y102.290 E0.73683
G1 X112.710 Y98.210 E0.12793
G1 X136.210 Y98.210 E0.73683
G1 X136.210 Y96.290 E0.06020
G1 X112.710 Y96.290 E0.73683
G1 X112.710 Y92.710 E0.11225
G1 X137.290 Y92.710 E0.77069
G1 X137.290 Y93.290 E0.01819
G1 X113.850 Y93.290 E0.73494
G1 X113.390 Y93.293 F10800.000
G1 X113.601 Y93.000
G1 F1200
G1 X137.101 Y93.000 E0.39652
G1 F8640
G1 X133.810 Y93.000 E-0.76000
G1 E-0.04000 F2100.00000
G1 Z0.800 F10800.000
G1 X213.087 Y168.087
G1 Z0.200
G1 E0.80000 F2100.00000
G1 F1200
G1 X213.413 Y168.087 E0.01022
G1 X213.413 Y170.587 E0.07839
G1 X236.913 Y170.587 E0.73683
G1 X236.913 Y173.913 E0.10428
G1 X213.413 Y173.913 E0.73683
G1 X213.413 Y176.587 E0.08385
G1 X236.913 Y176.587 E0.73683
G1 X236.913 Y179.913 E0.10428
G1 X213.413 Y179.913 E0.73683
G1 X213.413 Y182.587 E0.08385
G1 X236.913 Y182.587 E0.73683
G1 X236.913 Y185.913 E0.10428
G1 X213.413 Y185.913 E0.73683
G1 X213.413 Y188.587 E0.08385
G1 X236.913 Y188.587 E0.73683
G1 X236.913 Y191.913 E0.10428
G1 X213.087 Y191.913 E0.74704
G1 X213.087 Y191.587 E0.01022
G1 X236.587 Y191.587 E0.73683
G1 X236.587 Y188.913 E0.08385
G1 X213.087 Y188.913 E0.73683
G1 X213.087 Y185.587 E0.10428
G1 X236.587 Y185.587 E0.73683
G1 X236.587 Y182.913 E0.08385
G1 X213.087 Y182.913 E0.73683
G1 X213.087 Y179.587 E0.10428
G1 X236.587 Y179.587 E0.73683
G1 X236.587 Y176.913 E0.08385
G1 X213.087 Y176.913 E0.73683
G1 X213.087 Y173.587 E0.10428
G1 X236.587 Y173.587 E0.73683
G1 X236.587 Y170.913 E0.08385
G1 X213.087 Y170.913 E0.73683
G1 X213.087 Y168.147 E0.08672
G1 X213.790 Y168.290 F10800.000
G1 F1200
G1 X213.790 Y170.210 E0.06020
G1 X237.290 Y170.210 E0.73683
G1 X237.290 Y174.290 E0.12793
G1 X213.790 Y174.290 E0.73683
G1 X213.790 Y176.210 E0.06020
G1 X237.290 Y176.210 E0.73683
G1 X237.290 Y180.290 E0.12793
G1 X213.790 Y180.290 E0.73683
M73 Q18 S9
G1 X213.790 Y182.210 E0.06020
G1 X237.290 Y182.210 E0.73683
G1 X237.290 Y186.290 E0.12793
M73 P19 R9
G1 X213.790 Y186.290 E0.73683
G1 X213.790 Y188.210 E0.06020
G1 X237.290 Y188.210 E0.73683
G1 X237.290 Y192.290 E0.12793
G1 X212.710 Y192.290 E0.77069
G1 X212.710 Y191.210 E0.03386
G1 X236.210 Y191.210 E0.73683
G1 X236.210 Y189.290 E0.06020
G1 X212.710 Y189.290 E0.73683
G1 X212.710 Y185.210 E0.12793
G1 X236.210 Y185.210 E0.73683
G1 X236.210 Y183.290 E0.06020
G1 X212.710 Y183.290 E0.73683
G1 X212.710 Y179.210 E0.12793
G1 X236.210 Y179.210 E0.73683
G1 X236.210 Y177.290 E0.06020
G1 X212.710 Y177.290 E0.73683
G1 X212.710 Y173.210 E0.12793
G1 X236.210 Y173.210 E0.73683
G1 X236.210 Y171.290 E0.06020
G1 X212.710 Y171.290 E0.73683
G1 X212.710 Y167.710 E0.11225
G1 X237.290 Y167.710 E0.77069
G1 X237.290 Y168.290 E0.01819
G1 X213.850 Y168.290 E0.73494
G1 X213.390 Y168.293 F10800.000
G1 X213.601 Y168.000
G1 F1200
G1 X237.101 Y168.000 E0.39652
G1 F8640
G1 X233.810 Y168.000 E-0.76000
G1 E-0.04000 F2100.00000
G1 Z0.800 F10800.000
G1 X236.913 Y41.913
G1 Z0.200
G1 E0.80000 F2100.00000
G1 F1200
G1 X213.087 Y41.913 E0.74704
G1 X213.087 Y41.587 E0.01022
G1 X236.587 Y41.587 E0.73683
G1 X236.587 Y38.913 E0.08385
G1 X213.087 Y38.913 E0.73683
G1 X213.087 Y35.587 E0.10428
G1 X236.587 Y35.587 E0.73683
G1 X236.587 Y32.913 E0.08385
G1 X213.087 Y32.913 E0.73683
G1 X213.087 Y29.587 E0.10428
G1 X236.587 Y29.587 E0.73683
G1 X236.587 Y26.913 E0.08385
G1 X213.087 Y26.913 E0.73683
G1 X213.087 Y23.587 E0.10428
G1 X236.587 Y23.587 E0.73683
G1 X236.587 Y20.913 E0.08385
G1 X213.087 Y20.913 E0.73683
G1 X213.087 Y18.087 E0.08860
G1 X213.413 Y18.087 E0.01022
G1 X213.413 Y20.587 E0.07839
G1 X236.913 Y20.587 E0.73683
G1 X236.913 Y23.913 E0.10428
G1 X213.413 Y23.913 E0.73683
G1 X213.413 Y26.587 E0.08385
G1 X236.913 Y26.587 E0.73683
G1 X236.913 Y29.913 E0.10428
G1 X213.413 Y29.913 E0.73683
G1 X213.413 Y32.587 E0.08385
G1 X236.913 Y32.587 E0.73683
G1 X236.913 Y35.913 E0.10428
G1 X213.413 Y35.913 E0.73683
G1 X213.413 Y38.587 E0.08385
G1 X236.913 Y38.587 E0.73683
G1 X236.913 Y41.853 E0.10240
G1 F8640
G1 X233.622 Y41.861 E-0.76000
G1 E-0.04000 F2100.00000
G1 Z0.800 F10800.000
G1 X213.790 Y18.290
G1 Z0.200
G1 E0.80000 F2100.00000
G1 F1200
G1 X213.790 Y20.210 E0.06020
G1 X237.290 Y20.210 E0.73683
G1 X237.290 Y24.290 E0.12793
G1 X213.790 Y24.290 E0.73683
G1 X213.790 Y26.210 E0.06020
G1 X237.290 Y26.210 E0.73683
G1 X237.290 Y30.290 E0.12793
G1 X213.790 Y30.290 E0.73683
G1 X213.790 Y32.210 E0.06020
G1 X237.290 Y32.210 E0.73683
G1 X237.290 Y36.290 E0.12793
G1 X213.790 Y36.290 E0.73683
G1 X213.790 Y38.210 E0.06020
G1 X237.290 Y38.210 E0.73683
G1 X237.290 Y42.290 E0.12793
G1 X212.710 Y42.290 E0.77069
G1 X212.710 Y41.210 E0.03386
G1 X236.210 Y41.210 E0.73683
G1 X236.210 Y39.290 E0.06020
G1 X212.710 Y39.290 E0.73683
G1 X212.710 Y35.210 E0.12793
G1 X236.210 Y35.210 E0.73683
G1 X236.210 Y33.290 E0.06020
G1 X212.710 Y33.290 E0.73683
G1 X212.710 Y29.210 E0.12793
G1 X236.210 Y29.210 E0.73683
M73 Q27 S8
G1 X236.210 Y27.290 E0.06020
G1 X212.710 Y27.290 E0.73683
M73 P28 R8
G1 X212.710 Y23.210 E0.12793
G1 X236.210 Y23.210 E0.73683
G1 X236.210 Y21.290 E0.06020
G1 X212.710 Y21.290 E0.73683
G1 X212.710 Y17.710 E0.11225
G1 X237.290 Y17.710 E0.77069
G1 X237.290 Y18.290 E0.01819
G1 X213.850 Y18.290 E0.73494
G1 X213.390 Y18.293 F10800.000
G1 X213.601 Y18.000
G1 F1200
G1 X237.101 Y18.000 E0.39652
G1 F8640
G1 X233.810 Y18.000 E-0.76000
G1 E-0.04000 F2100.00000
G1 Z0.800 F10800.000
G1 X36.913 Y170.587
G1 Z0.200
G1 E0.80000 F2100.00000
G1 F1200
G1 X36.913 Y173.913 E0.10428
G1 X13.413 Y173.913 E0.73683
G1 X13.413 Y176.587 E0.08385
G1 X36.913 Y176.587 E0.73683
G1 X36.913 Y179.913 E0.10428
G1 X13.413 Y179.913 E0.73683
G1 X13.413 Y182.587 E0.08385
G1 X36.913 Y182.587 E0.73683
G1 X36.913 Y185.913 E0.10428
G1 X13.413 Y185.913 E0.73683
G1 X13.413 Y188.587 E0.08385
G1 X36.913 Y188.587 E0.73683
G1 X36.913 Y191.913 E0.10428
G1 X13.087 Y191.913 E0.74704
G1 X13.087 Y191.587 E0.01022
G1 X36.587 Y191.587 E0.73683
G1 X36.587 Y188.913 E0.08385
G1 X13.087 Y188.913 E0.73683
G1 X13.087 Y185.587 E0.10428
G1 X36.587 Y185.587 E0.73683
G1 X36.587 Y182.913 E0.08385
G1 X13.087 Y182.913 E0.73683
G1 X13.087 Y179.587 E0.10428
G1 X36.587 Y179.587 E0.73683
G1 X36.587 Y176.913 E0.08385
G1 X13.087 Y176.913 E0.73683
G1 X13.087 Y173.587 E0.10428
G1 X36.587 Y173.587 E0.73683
G1 X36.587 Y170.913 E0.08385
G1 X13.087 Y170.913 E0.73683
G1 X13.087 Y168.087 E0.08860
G1 X13.413 Y168.087 E0.01022
G1 X13.413 Y170.587 E0.07839
G1 X36.853 Y170.587 E0.73494
G1 F8640
G1 X36.912 Y173.878 E-0.76000
G1 E-0.04000 F2100.00000
G1 Z0.800 F10800.000
G1 X13.790 Y168.290
G1 Z0.200
G1 E0.80000 F2100.00000
G1 F1200
G1 X13.790 Y170.210 E0.06020
G1 X37.290 Y170.210 E0.73683
G1 X37.290 Y174.290 E0.12793
G1 X13.790 Y174.290 E0.73683
G1 X13.790 Y176.210 E0.06020
G1 X37.290 Y176.210 E0.73683
G1 X37.290 Y180.290 E0.12793
G1 X13.790 Y180.290 E0.73683
G1 X13.790 Y182.210 E0.06020
G1 X37.290 Y182.210 E0.73683
G1 X37.290 Y186.290 E0.12793
G1 X13.790 Y186.290 E0.73683
G1 X13.790 Y188.210 E0.06020
G1 X37.290 Y188.210 E0.73683
G1 X37.290 Y192.290 E0.12793
G1 X12.710 Y192.290 E0.77069
G1 X12.710 Y191.210 E0.03386
G1 X36.210 Y191.210 E0.73683
G1 X36.210 Y189.290 E0.06020
G1 X12.710 Y189.290 E0.73683
G1 X12.710 Y185.210 E0.12793
G1 X36.210 Y185.210 E0.73683
G1 X36.210 Y183.290 E0.06020
G1 X12.710 Y183.290 E0.73683
G1 X12.710 Y179.210 E0.12793
G1 X36.210 Y179.210 E0.73683
G1 X36.210 Y177.290 E0.06020
G1 X12.710 Y177.290 E0.73683
G1 X12.710 Y173.210 E0.12793
G1 X36.210 Y173.210 E0.73683
G1 X36.210 Y171.290 E0.06020
G1 X12.710 Y171.290 E0.73683
G1 X12.710 Y167.710 E0.11225
G1 X37.290 Y167.710 E0.77069
G1 X37.290 Y168.290 E0.01819
G1 X13.850 Y168.290 E0.73494
G1 X13.390 Y168.293 F10800.000
G1 X13.601 Y168.000
G1 F1200
G1 X37.101 Y168.000 E0.39652
G1 F8640
G1 X33.810 Y168.000 E-0.76000
G1 E-0.04000 F2100.00000
G1 Z0.800 F10800.000
G1 X36.913 Y41.913
G1 Z0.200
G1 E0.80000 F2100.00000
G1 F1200
G1 X13.087 Y41.913 E0.74704
M73 Q37 S7
G1 X13.087 Y41.587 E0.01022
G1 X36.587 Y41.587 E0.73683
G1 X36.587 Y38.913 E0.08385
G1 X13.087 Y38.913 E0.73683
M73 P37 R7
G1 X13.087 Y35.587 E0.10428
G1 X36.587 Y35.587 E0.73683
G1 X36.587 Y32.913 E0.08385
G1 X13.087 Y32.913 E0.73683
G1 X13.087 Y29.587 E0.10428
G1 X36.587 Y29.587 E0.73683
G1 X36.587 Y26.913 E0.08385
G1 X13.087 Y26.913 E0.73683
G1 X13.087 Y23.587 E0.10428
G1 X36.587 Y23.587 E0.73683
G1 X36.587 Y20.913 E0.08385
G1 X13.087 Y20.913 E0.73683
G1 X13.087 Y18.087 E0.08860
G1 X13.413 Y18.087 E0.01022
G1 X13.413 Y20.587 E0.07839
G1 X36.913 Y20.587 E0.73683
G1 X36.913 Y23.913 E0.10428
G1 X13.413 Y23.913 E0.73683
G1 X13.413 Y26.587 E0.08385
G1 X36.913 Y26.587 E0.73683
G1 X36.913 Y29.913 E0.10428
G1 X13.413 Y29.913 E0.73683
G1 X13.413 Y32.587 E0.08385
G1 X36.913 Y32.587 E0.73683
G1 X36.913 Y35.913 E0.10428
G1 X13.413 Y35.913 E0.73683
G1 X13.413 Y38.587 E0.08385
G1 X36.913 Y38.587 E0.73683
G1 X36.913 Y41.853 E0.10240
G1 F8640
G1 X33.622 Y41.861 E-0.76000
G1 E-0.04000 F2100.00000
G1 Z0.800 F10800.000
G1 X13.790 Y18.290
G1 Z0.200
G1 E0.80000 F2100.00000
G1 F1200
G1 X13.790 Y20.210 E0.06020
G1 X37.290 Y20.210 E0.73683
G1 X37.290 Y24.290 E0.12793
G1 X13.790 Y24.290 E0.73683
G1 X13.790 Y26.210 E0.06020
G1 X37.290 Y26.210 E0.73683
G1 X37.290 Y30.290 E0.12793
G1 X13.790 Y30.290 E0.73683
G1 X13.790 Y32.210 E0.06020
G1 X37.290 Y32.210 E0.73683
G1 X37.290 Y36.290 E0.12793
G1 X13.790 Y36.290 E0.73683
G1 X13.790 Y38.210 E0.06020
G1 X37.290 Y38.210 E0.73683
G1 X37.290 Y42.290 E0.12793
G1 X12.710 Y42.290 E0.77069
G1 X12.710 Y41.210 E0.03386
G1 X36.210 Y41.210 E0.73683
G1 X36.210 Y39.290 E0.06020
G1 X12.710 Y39.290 E0.73683
G1 X12.710 Y35.210 E0.12793
G1 X36.210 Y35.210 E0.73683
G1 X36.210 Y33.290 E0.06020
G1 X12.710 Y33.290 E0.73683
G1 X12.710 Y29.210 E0.12793
G1 X36.210 Y29.210 E0.73683
G1 X36.210 Y27.290 E0.06020
G1 X12.710 Y27.290 E0.73683
G1 X12.710 Y23.210 E0.12793
G1 X36.210 Y23.210 E0.73683
G1 X36.210 Y21.290 E0.06020
G1 X12.710 Y21.290 E0.73683
G1 X12.710 Y17.710 E0.11225
G1 X37.290 Y17.710 E0.77069
G1 X37.290 Y18.290 E0.01819
G1 X13.850 Y18.290 E0.73494
G1 X13.390 Y18.293 F10800.000
G1 X13.601 Y18.000
G1 F1200
G1 X37.101 Y18.000 E0.39652
M106 S255
;BEFORE_LAYER_CHANGE
G92 E0.0
;0.35


G1 F8640
G1 X33.810 Y18.000 E-0.76000
G1 E-0.04000 F2100.00000
G1 Z0.800 F10800.000
;AFTER_LAYER_CHANGE
;0.35
G1 X11.780 Y15.433
G1 Z0.350
G1 E0.80000 F2100.00000
G1 F3000
G1 X12.494 Y15.311 E0.01751
G1 X237.504 Y15.311 E5.44183
G1 X238.334 Y15.476 E0.02047
G1 X239.042 Y15.947 E0.02055
G1 X239.517 Y16.651 E0.02055
G1 X239.688 Y17.483 E0.02055
G1 X239.689 Y192.511 E4.23303
G1 X239.632 Y192.996 E0.01182
G1 X239.467 Y193.460 E0.01191
G1 X239.202 Y193.876 E0.01191
G1 X238.854 Y194.219 E0.01182
G1 X238.220 Y194.567 E0.01751
G1 X237.506 Y194.689 E0.01751
G1 X12.496 Y194.689 E5.44183
G1 X12.007 Y194.632 E0.01191
G1 X11.543 Y194.468 E0.01191
G1 X11.127 Y194.204 E0.01191
G1 X10.781 Y193.854 E0.01191
G1 X10.433 Y193.220 E0.01751
G1 X10.311 Y192.506 E0.01751
G1 X10.311 Y17.496 E4.23258
M73 Q46 S6
M73 P46 R6
G1 X10.368 Y17.007 E0.01191
G1 X10.532 Y16.543 E0.01191
G1 X10.796 Y16.127 E0.01191
G1 X11.146 Y15.781 E0.01191
G1 X11.728 Y15.462 E0.01606
G1 F8640
G1 X12.494 Y15.311 E-0.18032
G1 X15.005 Y15.311 E-0.57968
G1 E-0.04000 F2100.00000
G1 Z0.950 F10800.000
G1 X113.143 Y93.143
G1 Z0.350
G1 E0.80000 F2100.00000
M204 S800
G1 F2700
G1 X113.357 Y93.143 E0.00559
G1 X113.357 Y95.643 E0.06514
G1 X136.857 Y95.643 E0.61231
G1 X136.857 Y98.857 E0.08375
G1 X113.357 Y98.857 E0.61231
G1 X113.357 Y101.643 E0.07258
G1 X136.857 Y101.643 E0.61231
G1 X136.857 Y104.857 E0.08375
G1 X113.357 Y104.857 E0.61231
G1 X113.357 Y107.643 E0.07258
G1 X136.857 Y107.643 E0.61231
G1 X136.857 Y110.857 E0.08375
G1 X113.357 Y110.857 E0.61231
G1 X113.357 Y113.643 E0.07258
G1 X136.857 Y113.643 E0.61231
G1 X136.857 Y116.857 E0.08375
G1 X113.143 Y116.857 E0.61790
G1 X113.143 Y116.643 E0.00559
G1 X136.643 Y116.643 E0.61231
G1 X136.643 Y113.857 E0.07258
