; generated by PrusaSlicer 2.0.0+win64 on 2019-06-17 at 17:23:18

; 

; external perimeters extrusion width = 0.45mm
; perimeters extrusion width = 0.45mm
; infill extrusion width = 0.45mm
; solid infill extrusion width = 0.45mm
; top infill extrusion width = 0.40mm
; support material extrusion width = 0.35mm
; first layer extrusion width = 0.42mm

M73 P0 R60
M73 Q0 S60
M201 X1000 Y1000 Z1000 E5000 ; sets maximum accelerations, mm/sec^2
M203 X200 Y200 Z12 E120 ; sets maximum feedrates, mm/sec
M204 P1250 R1250 T1250 ; sets acceleration (P, T) and retract acceleration (R), mm/sec^2
M205 X8.00 Y8.00 Z0.40 E1.50 ; sets the jerk limits, mm/sec
M205 S0 T0 ; sets the minimum extruding and travel feed rate, mm/sec
M107
M115 U3.7.1 ; tell printer latest fw version
G90 ; use absolute coordinates
M83 ; extruder relative mode
M104 S215 ; set extruder temp
M140 S60 ; set bed temp
M190 S60 ; wait for bed temp
M109 S215 ; wait for extruder temp
G28 W ; home all without mesh bed level
G80 ; mesh bed leveling
G1 Y-3.0 F1000.0 ; go outside print area
G92 E0.0
G1 X60.0 E9.0 F1000.0 ; intro line
M73 Q0 S60
M73 P0 R60
G1 X100.0 E12.5 F1000.0 ; intro line
G92 E0.0
M221 S95
M900 K30 ; Filament gcode
G21 ; set units to millimeters
G90 ; use absolute coordinates
M83 ; use relative distances for extrusion
;BEFORE_LAYER_CHANGE
G92 E0.0
;0.2


G1 E-0.80000 F2100.00000
G1 Z0.600 F10800.000
;AFTER_LAYER_CHANGE
;0.2
G1 X106.885 Y85.704
G1 Z0.200
G1 E0.80000 F2100.00000
M204 S1000
G1 F1200
G1 X107.783 Y85.075 E0.03436
G1 X108.794 Y84.653 E0.03436
G1 X109.873 Y84.458 E0.03436
G1 X137.394 Y84.275 E0.86295
G1 X141.128 Y84.496 E0.11726
G1 X141.995 Y84.700 E0.02793
G1 X142.818 Y85.054 E0.02810
G1 X143.747 Y85.696 E0.03541
G1 X144.511 Y86.528 E0.03541
G1 X145.073 Y87.507 E0.03541
G1 X145.405 Y88.586 E0.03541
G1 X145.494 Y89.523 E0.02949
G1 X145.493 Y118.845 E0.91937
G1 X145.413 Y119.615 E0.02427
G1 X145.217 Y120.364 E0.02427
G1 X144.910 Y121.074 E0.02427
G1 X144.499 Y121.730 E0.02427
G1 X143.925 Y122.382 E0.02723
G1 X141.086 Y124.995 E0.12098
G1 X139.901 Y125.620 E0.04200
G1 X138.600 Y125.913 E0.04182
G1 X110.109 Y126.101 E0.89331
G1 X109.334 Y126.022 E0.02444
G1 X108.585 Y125.827 E0.02427
G1 X107.874 Y125.521 E0.02427
G1 X107.213 Y125.107 E0.02444
G1 X106.370 Y124.323 E0.03610
G1 X105.725 Y123.369 E0.03610
G1 X105.311 Y122.295 E0.03610
G1 X105.149 Y121.155 E0.03610
G1 X105.149 Y89.390 E0.99596
G1 X105.230 Y88.620 E0.02427
G1 X105.425 Y87.877 E0.02410
G1 X105.732 Y87.166 E0.02427
G1 X106.143 Y86.511 E0.02427
G1 X106.844 Y85.748 E0.03248
G1 F8640
G1 X107.783 Y85.075 E-0.26661
G1 X108.794 Y84.653 E-0.25306
G1 X109.818 Y84.467 E-0.24033
G1 E-0.04000 F2100.00000
G1 Z0.800 F10800.000
G1 X142.508 Y123.017
G1 Z0.200
G1 E0.80000 F2100.00000
G1 F1200
G1 X142.087 Y123.782 E0.02741
G1 X141.156 Y124.727 E0.04158
G1 X140.250 Y125.286 E0.03340
G1 X138.624 Y125.745 E0.05297
G1 X111.398 Y125.745 E0.85365
G1 X111.130 Y125.716 E0.00843
G1 X109.630 Y125.728 E0.04706
G1 X108.392 Y125.463 E0.03967
G1 X107.294 Y124.871 E0.03911
G1 X106.431 Y124.059 E0.03716
G1 X105.902 Y123.338 E0.02802
G1 X105.335 Y121.542 E0.05905
G1 X105.380 Y88.760 E1.02787
G1 X105.840 Y87.326 E0.04722
G1 X106.436 Y86.421 E0.03396
G1 X107.268 Y85.612 E0.03639
G1 X108.281 Y85.022 E0.03674
G1 X109.631 Y84.654 E0.04388
G1 X118.852 Y84.635 E0.28913
G1 X137.010 Y84.635 E0.56931
G1 X137.225 Y84.658 E0.00678
G1 X137.827 Y84.633 E0.01889
G1 X140.924 Y84.640 E0.09710
G1 X142.515 Y85.089 E0.05185
G1 X143.388 Y85.625 E0.03210
G1 X144.151 Y86.354 E0.03310
G1 X144.843 Y87.415 E0.03972
G1 X145.297 Y88.992 E0.05145
G1 X145.306 Y119.215 E0.94760
G1 X145.004 Y120.451 E0.03989
G1 X144.356 Y121.583 E0.04090
G1 X143.295 Y122.600 E0.04609
G1 X142.561 Y122.989 E0.02604
G1 X142.231 Y122.735 F10800.000
G1 F1200
G1 X141.798 Y123.539 E0.02863
G1 X140.936 Y124.420 E0.03865
G1 X140.119 Y124.932 E0.03022
G1 X138.597 Y125.368 E0.04966
G1 X111.409 Y125.368 E0.85246
G1 X111.151 Y125.339 E0.00815
G1 X109.647 Y125.350 E0.04715
G1 X108.545 Y125.117 E0.03530
G1 X107.534 Y124.579 E0.03592
G1 X106.702 Y123.797 E0.03580
G1 X106.225 Y123.142 E0.02541
G1 X105.712 Y121.514 E0.05351
G1 X105.757 Y88.791 E1.02602
G1 X106.190 Y87.468 E0.04362
G1 X106.737 Y86.648 E0.03093
G1 X107.513 Y85.900 E0.03377
G1 X108.448 Y85.361 E0.03384
G1 X109.657 Y85.031 E0.03930
G1 X118.853 Y85.012 E0.28834
G1 X136.999 Y85.012 E0.56895
G1 X137.211 Y85.036 E0.00670
G1 X137.830 Y85.010 E0.01943
G1 X140.897 Y85.017 E0.09616
G1 X142.340 Y85.424 E0.04702
G1 X143.173 Y85.935 E0.03064
G1 X143.874 Y86.611 E0.03053
G1 X144.489 Y87.549 E0.03517
G1 X144.920 Y89.020 E0.04806
G1 X144.929 Y119.191 E0.94601
G1 X144.645 Y120.334 E0.03692
G1 X144.075 Y121.329 E0.03595
G1 X143.054 Y122.309 E0.04436
G1 X142.284 Y122.707 E0.02718
G1 X142.114 Y122.371 F10800.000
G1 F1200
G1 X141.953 Y122.452 E0.00565
G1 X141.508 Y123.296 E0.02993
G1 X140.714 Y124.115 E0.03574
G1 X139.987 Y124.578 E0.02703
G1 X138.570 Y124.991 E0.04630
G1 X111.420 Y124.991 E0.85125
G1 X111.172 Y124.961 E0.00785
G1 X109.665 Y124.973 E0.04724
G1 X108.651 Y124.754 E0.03253
G1 X107.774 Y124.287 E0.03115
G1 X106.974 Y123.535 E0.03444
G1 X106.549 Y122.946 E0.02278
G1 X106.089 Y121.486 E0.04800
G1 X106.135 Y88.822 E1.02414
G1 X106.539 Y87.613 E0.03996
G1 X107.038 Y86.876 E0.02790
G1 X107.756 Y86.189 E0.03117
G1 X108.613 Y85.700 E0.03094
G1 X109.683 Y85.408 E0.03476
G1 X118.854 Y85.389 E0.28755
G1 X136.987 Y85.389 E0.56856
G1 X137.196 Y85.414 E0.00660
G1 X137.833 Y85.387 E0.02001
G1 X140.870 Y85.394 E0.09522
G1 X142.167 Y85.760 E0.04224
G1 X142.927 Y86.221 E0.02787
G1 X143.597 Y86.868 E0.02922
G1 X144.136 Y87.684 E0.03065
G1 X144.543 Y89.048 E0.04462
G1 X144.552 Y119.167 E0.94439
G1 X144.286 Y120.216 E0.03392
G1 X143.795 Y121.076 E0.03105
G1 X142.814 Y122.017 E0.04261
G1 X142.168 Y122.344 E0.02271
G1 X141.675 Y122.168 F10800.000
G1 F1200
G1 X141.216 Y123.056 E0.03131
G1 X140.490 Y123.811 E0.03285
G1 X139.853 Y124.224 E0.02382
G1 X138.542 Y124.614 E0.04287
G1 X111.432 Y124.614 E0.85000
G1 X111.194 Y124.584 E0.00753
G1 X109.683 Y124.596 E0.04739
G1 X108.802 Y124.408 E0.02822
G1 X108.013 Y123.995 E0.02793
G1 X107.246 Y123.273 E0.03302
G1 X106.873 Y122.751 E0.02011
G1 X106.466 Y121.457 E0.04253
G1 X106.512 Y88.854 E1.02224
G1 X106.886 Y87.761 E0.03624
G1 X107.337 Y87.106 E0.02493
G1 X107.963 Y86.505 E0.02722
G1 X108.780 Y86.040 E0.02946
G1 X109.708 Y85.785 E0.03020
G1 X118.854 Y85.766 E0.28676
G1 X136.974 Y85.766 E0.56814
G1 X137.179 Y85.792 E0.00648
G1 X137.837 Y85.764 E0.02063
G1 X140.844 Y85.771 E0.09428
G1 X141.995 Y86.096 E0.03750
G1 X142.681 Y86.508 E0.02508
G1 X143.321 Y87.126 E0.02790
G1 X143.784 Y87.821 E0.02618
G1 X144.166 Y89.076 E0.04114
G1 X144.175 Y119.143 E0.94273
G1 X143.927 Y120.097 E0.03090
G1 X143.514 Y120.823 E0.02619
G1 X142.575 Y121.724 E0.04081
G1 X141.729 Y122.142 E0.02957
G1 X141.423 Y121.829 F10800.000
G1 F1200
G1 X140.924 Y122.816 E0.03468
G1 X140.263 Y123.509 E0.03001
G1 X139.716 Y123.872 E0.02060
G1 X138.513 Y124.237 E0.03938
G1 X111.445 Y124.237 E0.84870
G1 X111.218 Y124.207 E0.00720
G1 X109.700 Y124.219 E0.04760
G1 X108.951 Y124.061 E0.02398
G1 X108.252 Y123.701 E0.02466
G1 X107.519 Y123.012 E0.03156
G1 X107.198 Y122.558 E0.01741
G1 X106.844 Y121.429 E0.03711
G1 X106.889 Y88.888 E1.02030
G1 X107.233 Y87.912 E0.03246
G1 X107.613 Y87.364 E0.02091
G1 X108.171 Y86.820 E0.02442
G1 X108.946 Y86.379 E0.02796
G1 X109.734 Y86.162 E0.02564
G1 X118.855 Y86.143 E0.28596
G1 X136.961 Y86.143 E0.56770
G1 X137.153 Y86.169 E0.00609
G1 X137.662 Y86.162 E0.01596
G1 X137.853 Y86.141 E0.00601
G1 X140.817 Y86.148 E0.09294
G1 X141.824 Y86.433 E0.03282
G1 X142.435 Y86.795 E0.02226
G1 X143.045 Y87.384 E0.02658
G1 X143.433 Y87.960 E0.02176
G1 X143.789 Y89.105 E0.03761
G1 X143.798 Y119.118 E0.94103
G1 X143.569 Y119.976 E0.02785
G1 X143.233 Y120.570 E0.02139
G1 X142.335 Y121.432 E0.03903
G1 X141.650 Y121.768 E0.02391
G1 X141.481 Y121.814 E0.00549
G1 X141.097 Y121.519 F10800.000
G1 F1200
G1 X141.038 Y121.756 E0.00764
G1 X140.630 Y122.579 E0.02881
G1 X140.033 Y123.210 E0.02723
G1 X139.575 Y123.521 E0.01735
G1 X138.484 Y123.860 E0.03582
G1 X111.459 Y123.860 E0.84736
G1 X111.243 Y123.830 E0.00684
G1 X109.717 Y123.841 E0.04786
G1 X109.097 Y123.713 E0.01983
G1 X108.490 Y123.407 E0.02132
G1 X107.792 Y122.751 E0.03004
G1 X107.524 Y122.367 E0.01468
G1 X107.221 Y121.400 E0.03176
G1 X107.266 Y88.922 E1.01833
G1 X107.578 Y88.065 E0.02860
G1 X107.890 Y87.620 E0.01706
G1 X108.380 Y87.135 E0.02159
G1 X109.112 Y86.718 E0.02642
G1 X109.761 Y86.539 E0.02108
G1 X118.855 Y86.520 E0.28516
G1 X136.946 Y86.520 E0.56722
G1 X137.127 Y86.547 E0.00575
G1 X137.687 Y86.539 E0.01755
G1 X137.864 Y86.518 E0.00560
G1 X140.742 Y86.518 E0.09021
G1 X141.657 Y86.772 E0.02977
G1 X142.190 Y87.083 E0.01936
G1 X142.770 Y87.642 E0.02525
G1 X143.082 Y88.101 E0.01742
G1 X143.412 Y89.135 E0.03403
G1 X143.421 Y119.092 E0.93928
G1 X143.212 Y119.854 E0.02477
G1 X142.951 Y120.317 E0.01666
G1 X142.096 Y121.138 E0.03717
G1 X141.509 Y121.418 E0.02041
G1 X141.155 Y121.505 E0.01140
G1 X140.781 Y121.155 F10800.000
G1 F1200
G1 X140.688 Y121.614 E0.01467
G1 X140.305 Y122.385 E0.02700
G1 X139.801 Y122.912 E0.02287
G1 X139.432 Y123.171 E0.01414
G1 X138.455 Y123.482 E0.03216
G1 X111.474 Y123.482 E0.84597
G1 X111.270 Y123.452 E0.00646
G1 X109.733 Y123.464 E0.04819
G1 X109.240 Y123.363 E0.01578
G1 X108.727 Y123.113 E0.01791
G1 X108.066 Y122.491 E0.02845
G1 X107.852 Y122.178 E0.01190
G1 X107.598 Y121.372 E0.02648
G1 X107.643 Y88.958 E1.01632
G1 X107.921 Y88.224 E0.02462
G1 X108.187 Y87.852 E0.01434
G1 X108.589 Y87.450 E0.01782
G1 X109.279 Y87.057 E0.02489
G1 X109.787 Y86.916 E0.01653
G1 X136.905 Y86.895 E0.85027
M73 Q1 S59
M73 P1 R59
G1 X137.103 Y86.924 E0.00626
G1 X137.714 Y86.916 E0.01916
G1 X137.877 Y86.895 E0.00515
G1 X140.715 Y86.895 E0.08898
G1 X141.530 Y87.128 E0.02657
G1 X141.946 Y87.371 E0.01511
G1 X142.473 Y87.875 E0.02287
G1 X142.732 Y88.244 E0.01415
G1 X143.044 Y89.222 E0.03217
G1 X143.044 Y119.065 E0.93572
G1 X142.856 Y119.728 E0.02158
G1 X142.639 Y120.105 E0.01367
G1 X141.906 Y120.811 E0.03189
G1 X141.366 Y121.069 E0.01876
G1 X141.032 Y121.145 E0.01075
G1 X140.841 Y121.153 E0.00600
G1 X140.407 Y120.770 F10800.000
G1 F1200
G1 X140.401 Y121.118 E0.01089
G1 X140.336 Y121.475 E0.01138
G1 X140.011 Y122.146 E0.02339
G1 X139.542 Y122.637 E0.02129
G1 X139.241 Y122.845 E0.01146
G1 X138.425 Y123.105 E0.02686
G1 X137.119 Y123.105 E0.04094
G1 X137.010 Y123.089 E0.00346
G1 X136.901 Y123.105 E0.00346
G1 X135.611 Y123.105 E0.04044
G1 X135.502 Y123.089 E0.00346
G1 X135.393 Y123.105 E0.00346
G1 X134.103 Y123.105 E0.04044
G1 X133.994 Y123.089 E0.00346
G1 X133.884 Y123.105 E0.00346
G1 X132.594 Y123.105 E0.04044
G1 X132.485 Y123.089 E0.00346
G1 X132.376 Y123.105 E0.00346
G1 X131.086 Y123.105 E0.04044
G1 X130.977 Y123.089 E0.00346
G1 X130.868 Y123.105 E0.00346
G1 X129.578 Y123.105 E0.04044
G1 X129.469 Y123.089 E0.00346
G1 X129.359 Y123.105 E0.00346
G1 X128.069 Y123.105 E0.04044
G1 X127.960 Y123.089 E0.00346
G1 X127.851 Y123.105 E0.00346
G1 X126.561 Y123.105 E0.04044
G1 X126.452 Y123.089 E0.00346
G1 X126.343 Y123.105 E0.00346
G1 X125.053 Y123.105 E0.04044
G1 X124.944 Y123.089 E0.00346
G1 X124.834 Y123.105 E0.00346
G1 X123.545 Y123.105 E0.04044
G1 X123.435 Y123.089 E0.00346
G1 X123.326 Y123.105 E0.00346
G1 X122.036 Y123.105 E0.04044
G1 X121.927 Y123.089 E0.00346
G1 X121.818 Y123.105 E0.00346
G1 X120.528 Y123.105 E0.04044
G1 X120.419 Y123.089 E0.00346
G1 X120.309 Y123.105 E0.00346
G1 X119.020 Y123.105 E0.04044
G1 X118.910 Y123.089 E0.00346
G1 X118.801 Y123.105 E0.00346
G1 X117.511 Y123.105 E0.04044
G1 X117.402 Y123.089 E0.00346
G1 X117.293 Y123.105 E0.00346
G1 X116.003 Y123.105 E0.04044
G1 X115.894 Y123.089 E0.00346
G1 X115.784 Y123.105 E0.00346
G1 X114.495 Y123.105 E0.04044
G1 X114.385 Y123.089 E0.00346
G1 X114.276 Y123.105 E0.00346
G1 X112.986 Y123.105 E0.04044
G1 X112.877 Y123.089 E0.00346
G1 X112.768 Y123.105 E0.00346
G1 X111.490 Y123.105 E0.04008
G1 X111.300 Y123.075 E0.00604
G1 X109.752 Y123.087 E0.04853
G1 X109.344 Y123.000 E0.01308
G1 X108.922 Y122.789 E0.01479
G1 X108.343 Y122.234 E0.02515
G1 X108.180 Y121.991 E0.00917
G1 X107.975 Y121.343 E0.02131
G1 X108.008 Y89.057 E1.01231
G1 X108.244 Y88.421 E0.02128
G1 X108.466 Y88.107 E0.01205
G1 X108.837 Y87.736 E0.01646
G1 X109.441 Y87.398 E0.02168
G1 X109.859 Y87.287 E0.01358
G1 X118.801 Y87.273 E0.28037
G1 X118.910 Y87.288 E0.00346
G1 X119.020 Y87.272 E0.00346
G1 X120.309 Y87.272 E0.04044
G1 X120.419 Y87.288 E0.00346
G1 X120.528 Y87.272 E0.00346
G1 X121.818 Y87.272 E0.04044
G1 X121.927 Y87.288 E0.00346
G1 X122.036 Y87.272 E0.00346
G1 X123.326 Y87.272 E0.04044
G1 X123.435 Y87.288 E0.00346
G1 X123.545 Y87.272 E0.00346
G1 X124.834 Y87.272 E0.04044
G1 X124.944 Y87.288 E0.00346
G1 X125.053 Y87.272 E0.00346
G1 X126.343 Y87.272 E0.04044
G1 X126.452 Y87.288 E0.00346
G1 X126.561 Y87.272 E0.00346
G1 X127.851 Y87.272 E0.04044
G1 X127.960 Y87.288 E0.00346
G1 X128.069 Y87.272 E0.00346
G1 X129.359 Y87.272 E0.04044
G1 X129.469 Y87.288 E0.00346
G1 X129.578 Y87.272 E0.00346
G1 X130.868 Y87.272 E0.04044
G1 X130.977 Y87.288 E0.00346
G1 X131.086 Y87.272 E0.00346
G1 X132.376 Y87.272 E0.04044
G1 X132.485 Y87.288 E0.00346
G1 X132.594 Y87.272 E0.00346
G1 X133.884 Y87.272 E0.04044
G1 X133.994 Y87.288 E0.00346
G1 X134.103 Y87.272 E0.00346
G1 X135.393 Y87.272 E0.04044
G1 X135.502 Y87.288 E0.00346
G1 X135.611 Y87.272 E0.00346
G1 X136.889 Y87.272 E0.04007
G1 X137.075 Y87.302 E0.00589
G1 X137.742 Y87.292 E0.02094
G1 X137.890 Y87.272 E0.00467
G1 X139.163 Y87.272 E0.03992
G1 X139.273 Y87.288 E0.00346
G1 X139.382 Y87.272 E0.00346
G1 X140.687 Y87.272 E0.04091
G1 X141.398 Y87.482 E0.02326
G1 X141.732 Y87.682 E0.01220
G1 X142.196 Y88.132 E0.02026
G1 X142.406 Y88.435 E0.01156
G1 X142.666 Y89.251 E0.02687
G1 X142.666 Y119.037 E0.93392
G1 X142.501 Y119.600 E0.01838
G1 X142.355 Y119.856 E0.00924
G1 X141.712 Y120.486 E0.02823
G1 X141.260 Y120.706 E0.01577
G1 X140.972 Y120.772 E0.00926
G1 X140.467 Y120.771 E0.01584
G1 X140.027 Y120.392 F10800.000
G1 F1200
G1 X140.027 Y121.069 E0.02121
G1 X139.970 Y121.381 E0.00994
G1 X139.688 Y121.950 E0.01994
G1 X139.288 Y122.358 E0.01791
G1 X139.053 Y122.517 E0.00888
G1 X138.396 Y122.728 E0.02165
G1 X137.139 Y122.728 E0.03941
G1 X137.010 Y122.705 E0.00410
G1 X136.882 Y122.728 E0.00410
G1 X135.630 Y122.728 E0.03923
G1 X135.502 Y122.705 E0.00410
G1 X135.373 Y122.728 E0.00410
G1 X134.122 Y122.728 E0.03923
G1 X133.994 Y122.705 E0.00410
G1 X133.865 Y122.728 E0.00410
G1 X132.614 Y122.728 E0.03923
G1 X132.485 Y122.705 E0.00410
G1 X132.357 Y122.728 E0.00410
G1 X131.106 Y122.728 E0.03923
G1 X130.977 Y122.705 E0.00410
G1 X130.848 Y122.728 E0.00410
G1 X129.597 Y122.728 E0.03923
G1 X129.469 Y122.705 E0.00410
G1 X129.340 Y122.728 E0.00410
G1 X128.089 Y122.728 E0.03923
G1 X127.960 Y122.705 E0.00410
G1 X127.832 Y122.728 E0.00410
G1 X126.581 Y122.728 E0.03923
G1 X126.452 Y122.705 E0.00410
G1 X126.323 Y122.728 E0.00410
G1 X125.072 Y122.728 E0.03923
G1 X124.944 Y122.705 E0.00410
G1 X124.815 Y122.728 E0.00410
G1 X123.564 Y122.728 E0.03923
G1 X123.435 Y122.705 E0.00410
G1 X123.307 Y122.728 E0.00410
G1 X122.056 Y122.728 E0.03923
G1 X121.927 Y122.705 E0.00410
G1 X121.798 Y122.728 E0.00410
G1 X120.547 Y122.728 E0.03923
G1 X120.419 Y122.705 E0.00410
G1 X120.290 Y122.728 E0.00410
G1 X119.039 Y122.728 E0.03923
G1 X118.910 Y122.705 E0.00410
G1 X118.782 Y122.728 E0.00410
G1 X117.531 Y122.728 E0.03923
G1 X117.402 Y122.705 E0.00410
G1 X117.273 Y122.728 E0.00410
G1 X116.022 Y122.728 E0.03923
G1 X115.894 Y122.705 E0.00410
G1 X115.765 Y122.728 E0.00410
G1 X114.514 Y122.728 E0.03923
G1 X114.385 Y122.705 E0.00410
G1 X114.257 Y122.728 E0.00410
G1 X113.006 Y122.728 E0.03923
G1 X112.877 Y122.705 E0.00410
G1 X112.748 Y122.728 E0.00410
G1 X111.507 Y122.728 E0.03891
G1 X111.332 Y122.698 E0.00558
G1 X109.769 Y122.710 E0.04903
G1 X109.490 Y122.651 E0.00891
G1 X109.118 Y122.465 E0.01306
G1 X108.623 Y121.981 E0.02172
G1 X108.510 Y121.808 E0.00648
G1 X108.352 Y121.314 E0.01626
G1 X108.374 Y89.153 E1.00837
G1 X108.568 Y88.615 E0.01794
G1 X108.745 Y88.362 E0.00968
